svgs/light/gift-card.svg

<svg xmlns="http://www.w3.org/2000/svg" viewBox="0 0 576 512"><!-- Font Awesome Pro 6.0.0-alpha2 by @fontawesome - https://fontawesome.com License - https://fontawesome.com/license (Commercial License) --><path d="M512 128H479.596C489.746 114.588 496 98.078 496 80C496 35.891 460.125 0 416 0C363.066 0 315.916 60.631 288 106.043C260.084 60.631 212.934 0 160 0C115.875 0 80 35.891 80 80C80 98.078 86.254 114.588 96.404 128H64C28.654 128 0 156.654 0 192V448C0 483.346 28.654 512 64 512H512C547.346 512 576 483.346 576 448V192C576 156.654 547.346 128 512 128ZM416 32C442.469 32 464 53.531 464 80S442.469 128 416 128H312.133C347.332 69.012 386.781 32 416 32ZM160 32C189.219 32 228.668 69.012 263.867 128H160C133.531 128 112 106.469 112 80S133.531 32 160 32ZM544 448C544 465.645 529.645 480 512 480H64C46.355 480 32 465.645 32 448V368H544V448ZM544 336H32V192C32 174.355 46.355 160 64 160H244.764L165.594 227.859C158.875 233.609 158.094 243.703 163.844 250.406C172.521 260.488 183.869 254.336 186.406 252.141L288 165.061L389.594 252.141C392.133 254.336 403.479 260.488 412.156 250.406C417.906 243.703 417.125 233.609 410.406 227.859L331.236 160H512C529.645 160 544 174.355 544 192V336Z"/></svg>

<svg xmlns="http://www.w3.org/2000/svg" viewBox="0 0 576 512"><!--! Font Awesome Pro 6.0.0-alpha3 by @fontawesome - https://fontawesome.com License - https://fontawesome.com/license (Commercial License) --><path d="M512 128h-32.4C489.7 114.6 496 98.08 496 80C496 35.89 460.1 0 416 0c-52.93 0-100.1 60.63-128 106C260.1 60.63 212.9 0 160 0C115.9 0 80 35.89 80 80c0 18.08 6.254 34.59 16.4 48H64C28.65 128 .0001 156.7 .0001 192v256c0 35.35 28.65 64 63.1 64h448c35.35 0 64-28.65 64-64V192C576 156.7 547.3 128 512 128zM416 32c26.47 0 48 21.53 48 48S442.5 128 416 128h-103.9C347.3 69.01 386.8 32 416 32zM160 32c29.22 0 68.67 37.01 103.9 96H160C133.5 128 112 106.5 112 80S133.5 32 160 32zM544 448c0 17.64-14.36 32-32 32H64c-17.64 0-32-14.36-32-32v-80h512V448zM544 336H32V192c0-17.64 14.36-32 32-32h180.8L165.6 227.9C158.9 233.6 158.1 243.7 163.8 250.4C172.5 260.5 183.9 254.3 186.4 252.1L288 165.1l101.6 87.08c2.539 2.195 13.88 8.348 22.56-1.734c5.75-6.703 4.969-16.8-1.75-22.55L331.2 160H512c17.64 0 32 14.36 32 32V336z"/></svg>
